X: 2
T: The Road To Errogie
R: reel
M: 4/4
L: 1/8
K: Gmaj
DGG2 AGAB|dGG2 ABdB|e3d BAGB|A3B AGEG|DGG2 AGAB|dGG2 ABdB|e3d BAGB|AGAB G3E:|g2g2 g2ag|ab2a g3d|e2dg2de2-|edgd edBc|g2g2 g2ag|ab2a g3d|e3d BAGB|AGBA G4|g2g2 g2ag|ab2a g3d|e2dg2de2-|edgd edBG|DGG2 AGAB|dGG2 ABdB|e3d BAGB|AGBA G3E||


Tune 5270	Setting 5270

